16x16/apps/bbc.svg

<svg xmlns="http://www.w3.org/2000/svg" width="16" height="16" version="1">
 <rect fill="#c2352a" width="16" height="16" x="0" y="0" rx=".8" ry=".8"/>
 <path fill="#fff" opacity=".8" d="m1 6v5h4v-3h-1v-2h-2zm1 1h1v1h-1zm0 2h2v1h-2z"/>
 <path fill="#fff" opacity=".8" d="m11 6h4v1h-3v3h3v1h-4v-4z"/>
 <path fill="#fff" opacity=".8" d="m6 6v5h4v-3h-1v-2h-2zm1 1h1v1h-1zm0 2h2v1h-2z"/>
</svg>

<svg xmlns="http://www.w3.org/2000/svg" width="16" height="16" version="1"><rect fill="#c2352a" width="16" height="16" rx=".8" ry=".8"/><path fill="#fff" opacity=".8" d="M1 6v5h4V8H4V6H2zm1 1h1v1H2zm0 2h2v1H2zM11 6h4v1h-3v3h3v1h-4V7zM6 6v5h4V8H9V6H7zm1 1h1v1H7zm0 2h2v1H7z"/></svg>
